X:1
T:080 - Coração Purificado
T:Letra: Henry Maxwell Wright (1849-1931)
T:Música: Herbert H. Booth (1862 - ?)
M:3/4
L:1/8
Q:1/4=100
K:Ab
V:1
EA | "Ab"c2 A2 "Db"FA | F2 "Ab"E2 Ac | e3c BA | "Eb"B2 z2 EA | "Ab"c2 A2 "Db"FA | F2 "Ab"E2 Ac | e3d "Eb"cB | "Ab"A4 |]
w: A Je-sus com fé che-gan-do, A-cho ple-na sal-va-ção, E seu san-gue me le-van-do, Tor-na pu-roo co-ra-ção.
W: 
W:
W:
W: A Jesus com fé chegando,
W: Acho plena salvação,
W: E seu sangue me levando,
W: Torna puro o coração.
W:         
W: 				         
W: 





%wordsfont Times-Roman 13.0
%vocalfont Times-Roman 13.0
